_includes/icons/color-private.svg

<svg fill="#666" height="50" viewBox="0 0 48 48" width="50" xmlns="http://www.w3.org/2000/svg"><path d="m44 24c0 11.044-8.956 20-20 20s-20-8.956-20-20 8.956-20 20-20 20 8.956 20 20z" fill="#f44336"/><path d="m36.113 23.273c-.922-.566-2.176-.227-2.813.777l-2.3 2.919v-13.649c-.004-.75-.746-1.348-1.5-1.34-.758.008-1.512.625-1.5 1.375v9.066c-.316-.141-.652-.25-1-.32v-10.761c-.004-.746-.711-1.348-1.469-1.34-.754.008-1.531.629-1.531 1.375v10.625h-1v-9.691c-.004-.75-.762-1.324-1.516-1.309-.762.008-1.488.598-1.484 1.348v9.754c-.348.07-.684.184-1 .32v-7.098c-.008-.746-.762-1.348-1.516-1.34-.757.02-1.484.629-1.484 1.387l.047 9.449v.145c-.016.152-.047.301-.047.457v6.578c0 2.762 2.238 5 5 5h5c3 0 4.895-2.316 6-4l4.652-6.883c.625-1.004.383-2.269-.539-2.844z" fill="#ffcdd2"/></svg>

<svg xmlns="http://www.w3.org/2000/svg" viewBox="0 0 48 48" width="50" height="50" fill="#666"><path d="M44,24c0,11.044-8.956,20-20,20S4,35.044,4,24S12.956,4,24,4S44,12.956,44,24z" fill="#f44336"/><path d="M36.113,23.273c-0.922-0.566-2.176-0.227-2.813,0.777L31,26.969V13.32 c-0.004-0.75-0.746-1.348-1.5-1.34c-0.758,0.008-1.512,0.625-1.5,1.375v9.066c-0.316-0.141-0.652-0.25-1-0.32V11.34 c-0.004-0.746-0.711-1.348-1.469-1.34C24.777,10.008,24,10.629,24,11.375V22h-1v-9.691c-0.004-0.75-0.762-1.324-1.516-1.309 c-0.762,0.008-1.488,0.598-1.484,1.348v9.754c-0.348,0.07-0.684,0.184-1,0.32v-7.098c-0.008-0.746-0.762-1.348-1.516-1.34 C16.727,14.004,16,14.613,16,15.371l0.047,9.449v0.145C16.031,25.117,16,25.266,16,25.422V32c0,2.762,2.238,5,5,5h5 c3,0,4.895-2.316,6-4l4.652-6.883C37.277,25.113,37.035,23.848,36.113,23.273z" fill="#ffcdd2"/></svg>
